X:1908
C:Roger Tallroth
M:2/4
L:1/16
K:G
B,C|[G,D]2[G,E]2 [G,E]2DC|DC[CE]2 [B,D]2B,C|D2E2 E2[GA]2|[FA]4- [FA][A,F][G,G]G|
[G,G]2[A,=F]2 [G,E]2DC|DC[CE]2 [B,D]2DE|[B,F]2[B,G]2 [A,G]4|[A,F]6 ^G2|
A3G F2E2|DEDC A,3A,|G,2B,2 C2A,2|[A,F]6 B2-|
B2cB AGFE|[M:3/4]F2D2 C3[B,D] [A,D][A,D][A,D]2|[M:2/4][B,D]6:|
|:B,E|G3G F2GA|[M:3/4]G3F E2FE DCB2|[M:2/4]C6 A,2|
B,2D2 B2cB|AGEF [G,G]4|c3d e2c2|A^GAB c2A2|^G3E ^C2DE|[A,F]6 B2-|
B2cB AGFE|[M:3/4]F2D2 C3[B,D] [A,D][A,D][A,D]2|[M:2/4][B,D]6:|
(:musicend:)


(:music:)
